X:48
T:?????
R:jig
M:6/8
L:1/8
N:Dance Music,  From the repertoire of the Old Swan Band
O:England
A:Yorkshire
Z:Johnny Adams - Village Music Project
B:
F:
K:G
G2B d2d | gfe d3 | cdc BcB | AGA B2G| G2B d2d | gfe d3 | cdc BcB | 
ABA G3 :||: B3B3 |BAB c3 | B2c d2c | B2A B2G | B3B3 | BAB c3 | B2 g 
dBG | A3 G3:|

